source/img/icon-pinmail.svg

<svg width="18" height="12" viewBox="0 0 18 12" fill="none" xmlns="http://www.w3.org/2000/svg">
<path fill-rule="evenodd" clip-rule="evenodd" d="M15.75 0H1.75C1.09427 0 0.519759 0.313297 0.220157 0.77388C0.318349 0.795747 0.413739 0.832731 0.501733 0.885528L8.74995 5.83446L16.9982 0.885528C17.0862 0.832718 17.1816 0.795728 17.2798 0.773863C16.9802 0.313289 16.4057 0 15.75 0ZM17.5 2.41542L9.25173 7.36438C8.95045 7.54514 8.54945 7.54514 8.24817 7.36438L0 2.41547V10.5C0 11.325 0.7875 12 1.75 12H15.75C16.7125 12 17.5 11.325 17.5 10.5V2.41542Z" fill="#535353"/>
</svg>

<svg width="18" height="12" fill="none" xmlns="http://www.w3.org/2000/svg"><path fill-rule="evenodd" clip-rule="evenodd" d="M15.75 0h-14C1.094 0 .52.313.22.774a.947.947 0 01.282.112L8.75 5.834 16.998.886a.947.947 0 01.282-.112C16.98.314 16.406 0 15.75 0zm1.75 2.415l-8.248 4.95a.996.996 0 01-1.004 0L0 2.414V10.5c0 .825.787 1.5 1.75 1.5h14c.962 0 1.75-.675 1.75-1.5V2.415z" fill="#535353"/></svg>
